X: 22660
T: Lake St. John
R: reel
M: 4/4
K: Fmajor
DE|:F2FE FGAB|c2fd cAFc|f2fd cAFA|GAGF DCDE|
F2FE FGAB|c2fd cAFc|f2fd cAFA|1 GAGE F2DE:|2 GAGE F2AG||
|:FDDC DEFG|ADDC D2ED|C2CC CDEF|GAGF DCDE|
F2FE FGAB|c2fd cAFc|f2fd cAFA|1 GAGE F2AG:|2 GAGE F2DE||

